PortableApps/LibreOfficePortable/App/libreoffice/help/media/icon-themes/cmd/lc_showprecedents.svg

<svg viewBox="0 0 24 24" xmlns="http://www.w3.org/2000/svg"><path d="m2 3v5h7v-5zm1 1h5v3h-5zm-1 6v5h7v-5zm13 0v5h7v-5zm-12 1h5v3h-5zm13 0h5v3h-5zm-14 6v5h7v-5zm1 1h5v3h-5z" fill="#808080"/><path d="m3 4v3h5v-3zm0 7v3h5v-3zm13 0v3h5v-3zm-13 7v3h5v-3z" fill="#fff"/><path d="m9.4941406 4.9941406c-.4494023.0000914-.6705869.5468399-.3476562.859375l3.4999996 3.5-1.646484 1.6464844h4v-4l-1.646484 1.6464844-3.5000004-3.5c-.0942073-.0973688-.2238918-.1523438-.359375-.1523438zm1.5058594 9.0058594 1.646484 1.646484-3.4999996 3.5c-.3229307.312535-.1017461.859284.3476562.859375.1354831 0 .2651676-.05497.359375-.152343l3.5000004-3.5 1.646484 1.646484v-4z" fill="#4d82b8"/></svg>

<svg viewBox="0 0 24 24" xmlns="http://www.w3.org/2000/svg">
  <path
     style="fill:#808080"
     d="M 2 3 L 2 8 L 9 8 L 9 3 L 2 3 z M 3 4 L 8 4 L 8 7 L 3 7 L 3 4 z M 2 10 L 2 15 L 9 15 L 9 10 L 2 10 z M 15 10 L 15 15 L 22 15 L 22 10 L 15 10 z M 3 11 L 8 11 L 8 14 L 3 14 L 3 11 z M 16 11 L 21 11 L 21 14 L 16 14 L 16 11 z M 2 17 L 2 22 L 9 22 L 9 17 L 2 17 z M 3 18 L 8 18 L 8 21 L 3 21 L 3 18 z "
     id="rect843" />
  <path
     style="fill:#ffffff"
     d="M 3 4 L 3 7 L 8 7 L 8 4 L 3 4 z M 3 11 L 3 14 L 8 14 L 8 11 L 3 11 z M 16 11 L 16 14 L 21 14 L 21 11 L 16 11 z M 3 18 L 3 21 L 8 21 L 8 18 L 3 18 z "
     id="rect848" />
  <path
     style="fill:#4d82b8"
     d="M 9.4941406,4.9941406 C 9.0447383,4.994232 8.8235537,5.5409805 9.1464844,5.8535156 l 3.4999996,3.5 L 11,11 h 4 V 7 l -1.646484,1.6464844 -3.5000004,-3.5 C 9.7593083,5.0491156 9.6296238,4.9941406 9.4941406,4.9941406 Z M 11,14 l 1.646484,1.646484 -3.4999996,3.5 c -0.3229307,0.312535 -0.1017461,0.859284 0.3476562,0.859375 0.1354831,0 0.2651676,-0.05497 0.359375,-0.152343 l 3.5000004,-3.5 L 15,18 v -4 z" />
</svg>
